Sources/FrostedUI/Resources/Icons.xcassets/mentionFilled16.imageset/mention-filled-16.svg

<svg width="16" height="16" viewBox="0 0 16 16" fill="none" xmlns="http://www.w3.org/2000/svg" data-fui-icon="true">
  <path
    d="M8 0C12.4181 0 15.9999 3.58188 16 8C16 12.4182 12.4182 16 8 16C3.58185 16 0 12.4182 0 8C8.04377e-05 3.58188 3.5819 6.51819e-06 8 0ZM8.09863 2.71875C7.28422 2.7188 6.5427 2.84549 5.875 3.09863C5.21099 3.34815 4.63881 3.70813 4.1582 4.17773C3.68129 4.64366 3.31446 5.20126 3.05762 5.85059C2.80079 6.49632 2.67191 7.21753 2.67188 8.01367C2.67188 8.80627 2.80076 9.52605 3.05762 10.1719C3.31814 10.8176 3.68712 11.3717 4.16406 11.834C4.6447 12.2999 5.219 12.6577 5.88672 12.9072C6.55448 13.1604 7.29926 13.2871 8.12109 13.2871C8.78143 13.2871 9.3502 13.2231 9.82715 13.0947C10.137 13.0119 10.3977 12.9344 10.6084 12.8623C10.7792 12.8039 10.8598 12.6134 10.7939 12.4453L10.5664 11.8672C10.4988 11.6946 10.3035 11.6096 10.127 11.666C9.95768 11.7202 9.75509 11.7783 9.51953 11.8398C9.11223 11.9463 8.64363 11.999 8.11523 11.999C7.28617 11.999 6.5692 11.8353 5.96387 11.5088C5.36209 11.1859 4.89568 10.7273 4.56543 10.1328C4.23531 9.53482 4.07035 8.82684 4.07031 8.00879C4.07031 7.1905 4.23518 6.48191 4.56543 5.88379C4.89562 5.2858 5.36347 4.82363 5.96875 4.49707C6.57419 4.1705 7.29183 4.00684 8.12109 4.00684C8.90268 4.00684 9.57992 4.15711 10.1523 4.45801C10.7247 4.7552 11.1666 5.18478 11.4785 5.74609C11.7904 6.30383 11.9463 6.97551 11.9463 7.76074C11.9463 8.35152 11.8544 8.81573 11.6709 9.15332C11.4911 9.4871 11.242 9.65425 10.9229 9.6543C10.7726 9.6543 10.6535 9.61026 10.5654 9.52246C10.4811 9.43075 10.4385 9.27818 10.4385 9.06543V5.7002C10.4385 5.51625 10.2894 5.36645 10.1055 5.36621H9.54395C9.39356 5.36621 9.27163 5.48833 9.27148 5.63867V5.9082C9.27134 5.91 9.26941 5.91113 9.26758 5.91113C9.26651 5.91099 9.26519 5.91013 9.26465 5.90918C9.16168 5.73035 8.97885 5.57489 8.71582 5.44336C8.45162 5.30759 8.1355 5.24023 7.76855 5.24023C7.32101 5.24029 6.90813 5.3502 6.53027 5.57031C6.15242 5.78681 5.84832 6.10081 5.61719 6.51172C5.38606 6.92266 5.26954 7.41956 5.26953 8.00293C5.26953 8.53867 5.37264 9.01966 5.57812 9.44531C5.78361 9.86723 6.07401 10.2014 6.44824 10.4473C6.82243 10.6929 7.26457 10.8154 7.77441 10.8154C8.2183 10.8154 8.57615 10.7278 8.84766 10.5518C9.11829 10.3725 9.29958 10.1655 9.3916 9.93164C9.39217 9.93028 9.39403 9.92969 9.39551 9.92969C9.39705 9.92988 9.39812 9.93106 9.39844 9.93262C9.44315 10.1516 9.58275 10.3595 9.81641 10.5566C10.0512 10.7548 10.409 10.8545 10.8896 10.8545C11.6566 10.8545 12.2543 10.5821 12.6836 10.0391C13.1128 9.49241 13.3281 8.72607 13.3281 7.73926C13.3281 6.73016 13.1117 5.84891 12.6787 5.09668C12.2458 4.34457 11.6366 3.76131 10.8516 3.34668C10.07 2.92836 9.15175 2.71875 8.09863 2.71875ZM7.92285 6.44531C8.33742 6.44531 8.65484 6.58109 8.875 6.85254C9.09883 7.1204 9.21093 7.50391 9.21094 8.00293C9.21094 8.4983 9.09883 8.88178 8.875 9.15332C8.65484 9.42114 8.33745 9.55469 7.92285 9.55469C7.4936 9.55466 7.16158 9.42116 6.92676 9.15332C6.69559 8.88545 6.58008 8.50197 6.58008 8.00293C6.58009 7.50391 6.69559 7.1204 6.92676 6.85254C7.16157 6.58106 7.49362 6.44534 7.92285 6.44531Z"
    fill="currentColor"
  />
</svg>

<svg xmlns="http://www.w3.org/2000/svg" width="16" height="16" fill="none" data-fui-icon="true" viewBox="0 0 16 16"><path fill="currentColor" d="M8 0a8 8 0 1 1 0 16A8 8 0 0 1 8 0m.099 2.719q-1.222 0-2.224.38a4.9 4.9 0 0 0-1.717 1.079 4.75 4.75 0 0 0-1.1 1.673q-.386.968-.386 2.163 0 1.189.386 2.158.391.969 1.106 1.662a4.9 4.9 0 0 0 1.723 1.073q1 .38 2.234.38.991 0 1.706-.192.465-.124.781-.233a.315.315 0 0 0 .186-.417l-.228-.578a.355.355 0 0 0-.439-.201q-.255.081-.607.174-.612.159-1.405.159-1.243 0-2.151-.49a3.4 3.4 0 0 1-1.399-1.376q-.495-.897-.495-2.124t.495-2.125A3.43 3.43 0 0 1 5.97 4.497q.908-.49 2.152-.49 1.173 0 2.031.451a3.14 3.14 0 0 1 1.327 1.288q.467.837.467 2.015 0 .886-.275 1.392-.27.501-.748.501a.48.48 0 0 1-.358-.132q-.127-.137-.127-.457V5.7a.334.334 0 0 0-.333-.334h-.561a.273.273 0 0 0-.273.273v.27l-.003.002-.003-.002q-.154-.268-.55-.466-.396-.203-.946-.203-.671 0-1.239.33-.567.325-.913.942-.346.616-.347 1.49 0 .806.308 1.443.309.633.87 1.002.562.369 1.326.368.666 0 1.074-.263.406-.27.544-.62 0-.003.004-.002.002 0 .002.003.068.328.418.624.353.297 1.074.297 1.15 0 1.794-.815.644-.82.644-2.3 0-1.514-.65-2.642a4.47 4.47 0 0 0-1.826-1.75q-1.173-.628-2.753-.628m-.176 3.726q.622 0 .952.408.336.4.336 1.15 0 .743-.336 1.15-.33.402-.952.402-.644 0-.996-.402-.347-.402-.347-1.15 0-.75.347-1.15.352-.408.996-.408"/></svg>
